X:895
T:Christmas Day Ida Morning
C:Fredamann Stickle
S:Tom Anderson
Z:Nigel Gatherer
M:6/8
L:1/8
K:D
f2d f3  | e2d c2A | B2G d2c | B2G G3  |
e2f g2f | e2d c2B | ABA ABc | d3  d3 :|
e3 (4edef | g3 B3 | A2A A2A | B2c d2B |
e3 (4edef | g3 B3 | A2e d2B | A3  A3 :|
<end>
<start>
